SVG/h-square.svg

<?xml version="1.0" encoding="utf-8"?>
<!-- Generated by IcoMoon.io -->
<!DOCTYPE svg PUBLIC "-//W3C//DTD SVG 1.1//EN" "http://www.w3.org/Graphics/SVG/1.1/DTD/svg11.dtd">
<svg version="1.1" xmlns="http://www.w3.org/2000/svg" xmlns:xlink="http://www.w3.org/1999/xlink" width="12" height="14" viewBox="0 0 12 14">
<path fill="#444444" d="M10 10.5v-7q0-0.203-0.148-0.352t-0.352-0.148h-1q-0.203 0-0.352 0.148t-0.148 0.352v2.5h-4v-2.5q0-0.203-0.148-0.352t-0.352-0.148h-1q-0.203 0-0.352 0.148t-0.148 0.352v7q0 0.203 0.148 0.352t0.352 0.148h1q0.203 0 0.352-0.148t0.148-0.352v-2.5h4v2.5q0 0.203 0.148 0.352t0.352 0.148h1q0.203 0 0.352-0.148t0.148-0.352zM12 3.25v7.5q0 0.93-0.66 1.59t-1.59 0.66h-7.5q-0.93 0-1.59-0.66t-0.66-1.59v-7.5q0-0.93 0.66-1.59t1.59-0.66h7.5q0.93 0 1.59 0.66t0.66 1.59z"></path>
</svg>

<svg xmlns="http://www.w3.org/2000/svg" viewBox="0 0 12 14"><path d="M10 10.5v-7q0-.203-.148-.352T9.5 3h-1q-.203 0-.352.148T8 3.5V6H4V3.5q0-.203-.148-.352T3.5 3h-1q-.203 0-.352.148T2 3.5v7q0 .203.148.352T2.5 11h1q.203 0 .352-.148T4 10.5V8h4v2.5q0 .203.148.352T8.5 11h1q.203 0 .352-.148T10 10.5zm2-7.25v7.5q0 .93-.66 1.59T9.75 13h-7.5q-.93 0-1.59-.66T0 10.75v-7.5q0-.93.66-1.59T2.25 1h7.5q.93 0 1.59.66T12 3.25z" /></svg>
